X:1
T: Clashnettoe's Hornpipe
C:Alexander Walker
R:Reel
Q: 232
K:Eb
M:4/4
L:1/8
c|:B2 GE BE GE|EB GB BE GE|F2 DB, FB, DB,|B,F DF FB, DB,|
B2 GE BE GE|EB GB eB GE|Ac BG Ac fa|1g2 e2 e2 c2:|2g2 e2 e3d|
|:e2 gf ed cB|cd ed cB AG|AB cA GA BG|
|1F2 F2 F2 cd|e2 gf ed cB|cd eB AG FE|Ac BG Ac Be|g2 e2 e2 cd:|
|2F2 F2 F2 GF|EF GE AB cA|Be df e2 dc|BA GB GE FD|E2 E2 E3||
